symbolic/32x32/apps/phpstorm.svg

<svg xmlns="http://www.w3.org/2000/svg" width="32" height="32" version="1">
 <path style="opacity:0.2" d="M 3.4003906,31 C 2.6247906,31 2,30.375209 2,29.599609 v -1 C 2,29.375209 2.6247906,30 3.4003906,30 H 16 28.599609 C 29.375209,30 30,29.375209 30,28.599609 v 1 C 30,30.375209 29.375209,31 28.599609,31 H 16 Z"/>
 <path style="fill:#cf4f8c" d="M 16,2 H 3.4 C 2.6244,2 2,2.6244 2,3.4 V 16 h 14 z"/>
 <path style="fill:#6655e4" d="M 16,2 H 28.6 C 29.3756,2 30,2.6244 30,3.4 V 16 H 16 Z"/>
 <path style="fill:#6655e4" d="M 16,30 H 3.4 C 2.6244,30 2,29.3756 2,28.6 V 16 h 14 z"/>
 <path style="fill:#cf4f8c" d="M 16,30 H 28.6 C 29.3756,30 30,29.3756 30,28.6 V 16 H 16 Z"/>
 <path style="fill:#ffffff;opacity:0.2" d="M 3.4003906 2 C 2.6247906 2 2 2.6247906 2 3.4003906 L 2 4.4003906 C 2 3.6247906 2.6247906 3 3.4003906 3 L 16 3 L 28.599609 3 C 29.375209 3 30 3.6247906 30 4.4003906 L 30 3.4003906 C 30 2.6247906 29.375209 2 28.599609 2 L 16 2 L 3.4003906 2 z"/>
 <rect style="fill:#3f3f3f" width="20" height="20" x="6" y="6"/>
 <path style="opacity:0.2;fill:none;stroke:#000000;stroke-width:2;stroke-linecap:round" d="M 9.0002425,23.9999 H 17.000242"/>
 <path style="fill:none;stroke:#ffffff;stroke-width:2;stroke-linecap:round" d="M 9.0002425,23 H 17.000242"/>
 <path style="opacity:0.2;fill:none;stroke:#000000;stroke-width:1.99999988;stroke-linecap:round;stroke-linejoin:bevel" d="m 9.0002425,13.999657 c 0,0 4.0000025,0.464501 4.0000025,-1.999997 0,-2.4645014 -4.0000025,-2.0000014 -4.0000025,-2.0000014 m 9.9e-5,8.0000994 V 9.9997566"/>
 <path style="fill:none;stroke:#ffffff;stroke-width:1.99999988;stroke-linecap:round;stroke-linejoin:bevel" d="m 9.0002425,12.999757 c 0,0 4.0000025,0.464501 4.0000025,-1.999997 0,-2.4645014 -4.0000025,-2.0000014 -4.0000025,-2.0000014 m 9.9e-5,8.0000994 V 8.9998566"/>
 <path style="opacity:0.2;fill:none;stroke:#000000;stroke-width:1.99999988;stroke-linecap:round;stroke-linejoin:round" d="m 17.000242,16.999657 c 0,0 0.504385,1.000967 2.000001,1.000483 1.495612,-4.8e-4 1.999997,-1.000483 1.999997,-2.000481 0,-4.214385 -3.999998,0.211162 -3.988017,-3.990705 -0.01209,-1.009297 0.471866,-2.0092954 1.98802,-2.0092954 1.51615,0 1.999884,0.9999984 1.999884,0.9999984"/>
 <path style="fill:none;stroke:#ffffff;stroke-width:1.99999988;stroke-linecap:round;stroke-linejoin:round" d="m 17.000242,15.999757 c 0,0 0.504385,1.000967 2.000001,1.000483 1.495612,-4.8e-4 1.999997,-1.000483 1.999997,-2.000481 0,-4.214385 -3.999998,0.211162 -3.988017,-3.990705 -0.01209,-1.0092974 0.471866,-2.0092954 1.98802,-2.0092954 1.51615,0 1.999884,0.999998 1.999884,0.999998"/>
</svg>

<svg xmlns="http://www.w3.org/2000/svg" width="32" height="32" version="1"><path style="opacity:.2" d="M3.4 31c-.775 0-1.4-.625-1.4-1.4v-1c0 .775.625 1.4 1.4 1.4h25.2c.775 0 1.4-.625 1.4-1.4v1c0 .775-.625 1.4-1.4 1.4H16z"/><path style="fill:#cf4f8c" d="M16 2H3.4C2.624 2 2 2.624 2 3.4V16h14z"/><path style="fill:#6655e4" d="M16 2h12.6c.776 0 1.4.624 1.4 1.4V16H16zM16 30H3.4c-.776 0-1.4-.624-1.4-1.4V16h14z"/><path style="fill:#cf4f8c" d="M16 30h12.6c.776 0 1.4-.624 1.4-1.4V16H16z"/><path style="fill:#fff;opacity:.2" d="M3.4 2C2.625 2 2 2.625 2 3.4v1C2 3.625 2.625 3 3.4 3h25.2c.775 0 1.4.625 1.4 1.4v-1c0-.775-.625-1.4-1.4-1.4H3.4z"/><path style="fill:#3f3f3f" d="M6 6h20v20H6z"/><path style="opacity:.2;fill:none;stroke:#000;stroke-width:2;stroke-linecap:round" d="M9 24h8"/><path style="fill:none;stroke:#fff;stroke-width:2;stroke-linecap:round" d="M9 23h8"/><path style="opacity:.2;fill:none;stroke:#000;stroke-width:1.99999988;stroke-linecap:round;stroke-linejoin:bevel" d="M9 14s4 .464 4-2c0-2.465-4-2-4-2m0 8v-8"/><path style="fill:none;stroke:#fff;stroke-width:1.99999988;stroke-linecap:round;stroke-linejoin:bevel" d="M9 13s4 .464 4-2c0-2.465-4-2-4-2m0 8V9"/><path style="opacity:.2;fill:none;stroke:#000;stroke-width:1.99999988;stroke-linecap:round;stroke-linejoin:round" d="M17 17s.505 1 2 1c1.496 0 2-1 2-2 0-4.215-4 .21-3.988-3.991-.012-1.01.472-2.01 1.988-2.01s2 1 2 1"/><path style="fill:none;stroke:#fff;stroke-width:1.99999988;stroke-linecap:round;stroke-linejoin:round" d="M17 16s.505 1 2 1c1.496 0 2-1 2-2 0-4.215-4 .21-3.988-3.99C17 10 17.484 9 19 9s2 1 2 1"/></svg>
